icons/switch-line.svg

<svg viewBox="0 0 24 24" fill="currentColor" xmlns="http://www.w3.org/2000/svg"><path d="M12.001 3V21H7.60098C5.06047 21 3.00098 18.9405 3.00098 16.4V7.6C3.00098 5.05949 5.06047 3 7.60098 3H12.001ZM10.001 5H7.60098C6.16504 5 5.00098 6.16406 5.00098 7.6V16.4C5.00098 17.8359 6.16504 19 7.60098 19H10.001V5ZM7.50098 10C6.67255 10 6.00098 9.32843 6.00098 8.5C6.00098 7.67157 6.67255 7 7.50098 7C8.3294 7 9.00098 7.67157 9.00098 8.5C9.00098 9.32843 8.3294 10 7.50098 10ZM14.001 3H16.401C18.9415 3 21.001 5.05949 21.001 7.6V16.4C21.001 18.9405 18.9415 21 16.401 21H14.001V3ZM17.001 14.7C17.9951 14.7 18.801 13.8941 18.801 12.9C18.801 11.9059 17.9951 11.1 17.001 11.1C16.0069 11.1 15.201 11.9059 15.201 12.9C15.201 13.8941 16.0069 14.7 17.001 14.7Z"/></svg>

<svg xmlns="http://www.w3.org/2000/svg" viewBox="0 0 24 24">
    <g>
        <path fill="none" d="M0 0h24v24H0z"/>
        <path fill-rule="nonzero" d="M12 3v18H7.6A4.6 4.6 0 0 1 3 16.4V7.6A4.6 4.6 0 0 1 7.6 3H12zm-2 2H7.6A2.6 2.6 0 0 0 5 7.6v8.8A2.6 2.6 0 0 0 7.6 19H10V5zm-2.5 5a1.5 1.5 0 1 1 0-3 1.5 1.5 0 0 1 0 3zM14 3h2.4A4.6 4.6 0 0 1 21 7.6v8.8a4.6 4.6 0 0 1-4.6 4.6H14V3zm3 11.7a1.8 1.8 0 1 0 0-3.6 1.8 1.8 0 0 0 0 3.6z"/>
    </g>
</svg>
